X:125
T: GEH IN DEN KREIS MEINE ROSA
N: K2184A
O: Europa, Mitteleuropa, Deutschland, Kassel
R: Kinder - Lied, Reigen, Tanz - Spiel, Brautwerbung
M: 3/4
L: 1/8
K: C
G,G,G, | C4CD | C2B,
G,G,G, | D4DE | D2C
G,G,G, | E3DCB, | D3
A,A,A, | D2C2B,2 | C2z

